X:1
T:Jaime bien mon amy
T:François du Bois
T:Source : Il primo libro di madrigali a 3 voci---Venetia---A.Gardano---1559. Editor : André Vierendeels (30/10/14).
T:Notes : Original clefs :C4, C4, C4 Original note values have been halved Editorial accidentals above the staff Square brackets indicate ligatures The third voice is composed by J.Arcadelt 
T:Jaime bien mon amy
C:François du Bois
%%score [ 1 2 3 ]
L:1/8
Q:1/4=96
M:2/2
K:F
V:1 treble-8 nm="Tenor 1" snm="T 1"
V:2 treble-8 nm="Tenor 2" snm="T 2"
V:3 treble-8 nm="Tenor 3" snm="T 3"
V:1
 z8 | z8 | z2 c2 c4 | A4 BA GF | G2 A2 FG AB | cd ef dc f2- | fe ed/e/ f4 | z2 F2 c2 c2 | %8
w: ||Iai- me|* mon _ _ _|_ a- my, _ _ _|_ _ _ _ _ _ mon|_ _ a- * * my|de bon- ne'a-|
 d2 f3 e cd | ed cB A4- | A2 G2 A2 B2 | c2 d3 c c2- |"^-natural" c2 B2 c4 | z2 F2 f4- | %14
w: mour cer- tai- * *|* * * * ne,|_ de bon- ne'a-|mour cer- * tai-|* * ne,|car ie|
 f2 e2 d2 d2 | cB cd ec d2- | dc BA B4 | A4 z2 F2 | B6 A2 | G2 B3 A A2- | A2 G2 A4 | z2 c2 c4 | %22
w: _ scay bien quil|m'ai- * * * * * *||me, car|ie scay|bien quil _ m'ai-|* * me|et aus-|
 A4 BA AG/F/ | G2 G2 FG AB | cd ef dc f2- | f2 e2 f4 | z2 c2 c2 c2 | de fd ed cB | A2 c3 B AG | %29
w: si fais _ _ _ _|_ ie luy, _ _ _|_ _ _ _ _ _ _||et aus- si|fais _ _ _ _ _ _ _|_ ie _ _ _|
 F2 c2 c4 | A4 BA AG/F/ | G2 G2 FG AB | cd ef dc f2- | f2 e2 f2 F2 | FG AB cd ef | dc f2 f2 e2 | %36
w: luy, et aus-|si fais _ _ _ _|_ ie luy, _ _ _|_ _ _ _ _ _ _|* * * et|aus- * * * * * * *|* * si fais ie|
 f8 |] %37
w: luy.|
V:2
 z8 | z8 | z8 | z8 | z2 c2 c4 | A4 BA AG/F/ | G2 G2 F4- | F4 z4 | z8 | z2 F2 c4- | c2 c2 d4 | %11
w: ||||Iai- me|bien mon _ _ _ _|_ a- my|_||de bon-|* ne'a- mour|
 f4 e3 d/c/ | d4 c4- | c4 z4 | z8 | z8 | z8 | z2 c2 f4- | f2 e2 d4- | d2 d2 c2 BA | B4 A4- | %21
w: cer- tai- * *|* ne,|_||||car ie|_ scay bien|_ quil m'ai- * *|* me|
 A4 z4 | z8 | z2 c2 c4 | A4 BA AG/F/ | G2 G2 F2 c2 | c4 A4 | BA AG/F/ G2 G2 | F8 | z8 | z8 | %31
w: _||et aus-|si fais _ _ _ _|_ ie luy, et|aus- si|fais _ _ _ _ _ ie|luy,|||
 z2 c2 c4 | A4 BA AG/F/ | G2 G2 F2 c2 | c4 A4 | BA AG/F/ G2 G2 | F8 |] %37
w: et aus-|si fais _ _ _ _|_ ie luy, et|aus- si|fais _ _ _ _ _ ie|luy.|
V:3
 z2 c2 c4 | A4 BA GF | G2 A2 FG AB | cd ec dc BA | B2 c3 B AG | F2 C2 D4 | C4 z2 F2 | c3 B AG FE | %8
w: Iai- me|bien mon _ _ _|_ a- my, _ _ _|_ _ _ _ _ _ _ _|* bien _ _ _|_ mon a-|my de|bon- ne'a- * * * *|
 F2 DE FG AB | cB AG F2 F2 | F2 E2 F2 G2 | A2 F2 G2 A2 | G4 z2 C2 | F6 E2 | D2 C2 B,C DE | %15
w: mour, a- * * * * *|mour, _ _ _ _ de|bon- ne'a- mour cer-|tai- * * *|ne, car|ie scay|bien quil m'ai- * * *|
 FG AB cB GA | Bc A3 G/F/ G2 | A8 | z2 G2 B4- | B2 G2 A2 F2 | G4 F2 c2 | c4 A2 F2- | FG AF GF F2- | %23
w: ||me,|car ie|_ scay bien quil|m'ai- me et|aus- si fais|_ _ _ _ _ _ ie|
 FE ED/E/ F4 | z4 z2 c2 | c2 B2 A3 G/F/ | ED F4 E2 | D4 C4 | F4 z2 c2 | c4 A2 F2- | FG AF GF F2- | %31
w: _ _ _ _ _ luy,|et|aus- si fais _ _|_ _ _ _|ie _|luy, et|aus- si fais|_ _ _ _ _ _ _|
 F2 E2 F4 | z4 z2 c2 | c2 B2 cB AG | A2 F3 E/D/ C2 | D4 C4 | F8 |] %37
w: * ie luy,|et|aus- si fais _ _ _|_ _ _ _ _|* ie|luy.|

